shader_type spatial;

render_mode unshaded, cull_front;
 
uniform float border_width : hint_range(0,1,0.001);
uniform vec4 color : source_color = vec4(1.0);

void vertex() {
	VERTEX += VERTEX * border_width;
}

void fragment() {
	ALBEDO = color.xyz;
}

void light() {
	// Called for every pixel for every light affecting the material.
}
